image-auto-adjust.svg

<svg fill="currentColor" viewBox="0 0 24 24"><path d="M19 10v9H5V5h9V3H5c-1.08 0-2 .9-2 2v14c0 1.1.92 2 2 2h14c1.12 0 2-.9 2-2v-9zm-2 0 .94-2.06L20 7l-2.06-.94L17 4l-.94 2.06L14 7l2.06.94zm-3.75.75L12 8l-1.25 2.75L8 12l2.75 1.25L12 16l1.25-2.75L16 12z"/></svg>

<svg  viewBox="0 0 24 24" fill="currentColor"><path  d="M19 10V19H5V5H14V3H5C3.92 3 3 3.9 3 5V19C3 20.1 3.92 21 5 21H19C20.12 21 21 20.1 21 19V10H19M17 10L17.94 7.94L20 7L17.94 6.06L17 4L16.06 6.06L14 7L16.06 7.94L17 10M13.25 10.75L12 8L10.75 10.75L8 12L10.75 13.25L12 16L13.25 13.25L16 12L13.25 10.75Z"/></svg>
